X:1
T:Title
%%score { ( 1 4 ) | ( 2 3 ) }
L:1/8
M:6/8
K:G
V:1 treble nm="Grand Piano"
V:4 treble 
V:2 treble 
V:3 treble 
V:1
 z3 z2[Q:1/4=100] G | B2 B cB[^CG_B] | [DGB]3- [DGB]2 [CFA] | [B,G]2 [B,G] .[CEA]2 [G,CE] | %4
 [G,B,D]3- [G,B,D]2 [G,B,D] | [B,DG]2 [B,DG] D-[DA][DB] | [Ec]3- [Ec]2 [Ge] | %7
 [Gd]2 [GB] [Ac]B[CFA] | [B,G]3- [B,G]2 B | d2 B cd[Ge] | d2 B d2 B | [Ac]2 [FA] [FA][GB][Ac] | %12
 B2 ^c [Fd]3 |[M:1/8] c |[M:3/4] B2 BB AB | [Ec]6 | z F, AA GA | [DB]4- [DB][CA] | z2 z G z2 | %19
 [CE]6 | D2 DD B[CDA] |[M:5/8] [B,DG]-[B,DG]- [B,DG]3 |] %22
V:2
 z3 z2 [G,B,D] | z3 .E3[K:bass] | G,3- G,2 D, | E,2 E, z GC, | G,,3- G,,2 G,, | %5
 G,,2 G,, B,,[A,,F,][G,,G,] | [C,G,]3- [C,G,]2 [C,C] | [D,B,]2 [D,D] z GD, | %8
 G,,3- G,,2[K:treble] [G,DG] | [G,B,G]2 [G,DG][K:bass] [E,C][D,B,][C,C] | %10
 [G,B,G]2 [G,DG] [G,B,G]2 [G,DG] | [D,D]2 [D,D] [D,D]2 [D,D] | [G,DG]2 [A,F][K:bass] [D,A,]3 | %13
[M:1/8] [F,A,D] |[M:3/4] [G,D]2 [G,D]D C[G,D] | [C,G,]2 C, C,2 [^C,G,] | %16
 [D,F,]D, [D,F,D][D,D]- [D,E,D][D,F,D] | G,2 G, G,2 [D,F,] | %18
 [G,,G,]2 [G,,G,][B,,G,] [A,,F,][G,,G,] | [C,G,]2 C, C,2 [C,G,C] | [D,G,B,]2 [D,G,B,]B, DD, | %21
[M:5/8] G,,-G,,- G,,3 |] %22
V:3
 x6 | [G,DG]2 [G,DG] [G,G]-[G,DG][K:bass]G, | x6 | z3 .C,3 | x6 | x6 | x6 | z3 .[D,D]3 | %8
 x5[K:treble] x | x3[K:bass] x3 | x6 | x6 | x3[K:bass] x3 |[M:1/8] x |[M:3/4] z2 z .G,3 | x6 | %16
 z2 z F, z2 | x6 | x6 | x6 | z2 z .[D,G,]3 |[M:5/8] x5 |] %22
V:4
 x6 | x6 | x6 | x6 | x6 | z3 .[G,G]3 | x6 | x6 | x6 | z3 .G3 | x6 | x6 | x6 |[M:1/8] x | %14
[M:3/4] x6 | z2 G, G,2 [EA] | [DA]2 z2 z2 | x6 | [B,G]2 [B,G]D- [DA][DB] | z2 G, G,2 E | x6 | %21
[M:5/8] x5 |] %22

